X: 12448
T: Farewell To Cailroe
R: reel
M: 4/4
K: Dmajor
d2AF GFGA|FDFA defg|ab^gb a=gfd|efde cABc|
ABcA dcAf|gafa g2fg|~a3g edcd|eAce d3 A:|
d2 af gfeg|fgef dcAG|EFGE A2 EA|cAec dcAc|
d2 Ad FdAd|Beed cABc|da^ga =gfge|cdec d4:|

